X: 10956
T: Drummore Lasses
R: slip jig
M: 9/8
K: Cmajor
|:G|c2e ege g2 d|e2c fdc BBB|c2e ege g2 d|e2c fdc c2:|
|:B/c/|ddd dBG BAG|ddd dBG ABc|ddd dBG BAG|(3efge fdB c2:|

